X: 34832
T: Roarin' Donald
R: reel
M: 4/4
K: Edorian
z6ED|:B,EED E2DE|GABG A2GA|B2BA B2AB|DEE/E/E FDED|
B,EEB, E2DE|GABG A2GA|B3A B/=c/BAB|GEED E4:|
|:Beed e2de|f/e/dec d3c|ABB/B/B eBB/B/B|cABG ABGE|
B,EEB, E2DE|GABG A2GA|BEE/E/E BEAB|GEED E3D:|
EB,B,/B,/B, E2DE|GABG A2GA|B2BA B/=c/BAB|DEE/E/E FDD/D/D|
EB,B,/B,/B, EB,DE|GABG A2GA|B2BA B/=c/BAB|GEED E4|B,EE/E/E B,EE/E/E|
GABG A2GA|BEE/E/E BEAB|DEE/E/E FDD/D/D|B,EED E2DE|GABG A2GA|
B2BA B2AB|GEED E4|
|:Beed e2de|f/e/dec d3c|ABB/B/B eBB/B/B|cABG ABGE|
B,EEB, E2DE|GABG A2GA|BEE/E/E BEAB|GEED E3D:|

